X:1
T:Title
%%score { ( 1 5 ) | ( 2 3 4 ) }
L:1/8
M:3/4
K:F
V:1 treble nm="Grand Piano"
V:5 treble 
V:2 bass 
V:3 bass 
V:4 bass 
V:1
 z2 z2[Q:1/4=100] _A>=A | B2 A2 _A=A | B2 A2 .[E_A]2 | B2 z2 G>F | E4 E>F | G2 G2 DE | F2 F2 ^C>D | %7
 E3- E/F/ E>^C | D4 Ad | [Fd]2 A2 z2 | [Fd]2 A2 z2 | B2 B2 [G^c]2 | d4 cd | c2 z2 z2 | B2 z2 z2 | %15
 G3- G/B/ A>G | A4 z2 | A2 z2 z2 | A2 z2 z2 | G4 z2 | D4 z2 |] %21
V:2
 z6 | [F,A,C]4 [E,^C]2 | [D,D]4 z[K:treble] A | z2 A2[K:bass] D,2 | [^C,G,A,]6 | [A,,E,]6 | %6
 [C,F,A,]6 | [A,C]4- [^C,A,C]2 | [D,F,A,]6 | A,2- [A,D-]2 [A,D]2 | A,2- [A,D-]2 [A,D]2 | %11
 B,4- B,->[B,^c] | [D,A,]6 | z2[K:treble] B2 B>c | F,2 D,E, F,2 | [E,^C]4 z2 | z2 z2[K:treble] AG | %17
 z2 z2 A,2 | D,E, F,G, A,2 | [A,,E,]4 [^C,G,A,]2 | [D,F,A,]4 z2 |] %21
V:3
 x6 | x6 | F,6[K:treble] | D,4[K:bass] z2 | x6 | x6 | x6 | E,4 z2 | x6 | .D,2 .F,2 z2 | %10
 .D,2 .F,2 z2 | [G,D]4 E,2 | x6 | [E,G,]6[K:treble] | x6 | E4- [A,,E]2 | D,6[K:treble] | %17
 D,E, F,G, z G | x6 | x6 | x6 |] %21
V:4
 x6 | x6 | z2 z2 ^C,2[K:treble] | x4[K:bass] x2 | x6 | x6 | x6 | x6 | x6 | x6 | x6 | x6 | x6 | %13
 x2[K:treble] x4 | x6 | x6 | x4[K:treble] x2 | x6 | x6 | x6 | x6 |] %21
V:5
 x6 | x6 | x6 | [A,F]6 | x6 | ^C6 | x6 | x6 | x6 | z E, z G, Ad | z E, z G, AA | x6 | F6 | G6 | %14
 D2- [A,D-A]2 [D-A][DB] | x6 | [A,F]6 | [A,F]2- [A,DF-]2 [FA]2 | [A,F]2- [A,DF-]2 [EF]F | %19
 ^C3- C/-[CA]/ F>E | x6 |] %21

